; generated by Slic3r 1.2.9 on 2016-02-01 at 10:07:33

; external perimeters extrusion width = 0.50mm
; perimeters extrusion width = 0.72mm
; infill extrusion width = 0.72mm
; solid infill extrusion width = 0.72mm
; top infill extrusion width = 0.72mm

M107
M104 S200 ; set temperature
G28 ; home all axes
G1 Z5 F5000 ; lift nozzle

M109 S200 ; wait for temperature to be reached
G21 ; set units to millimeters
G90 ; use absolute coordinates
M82 ; use absolute distances for extrusion
G92 E0
G1 Z0.350 F7800.000
G1 E-2.00000 F2400.00000
G92 E0
G1 X93.781 Y95.294 F7800.000
G1 E2.00000 F2400.00000
G1 X94.575 Y94.537 E2.03395 F600.000
G1 X95.520 Y93.883 E2.06950
G1 X95.982 Y93.639 E2.08567
G1 X97.146 Y93.201 E2.12417
G1 X98.344 Y92.975 E2.16189
G1 X99.668 Y92.967 E2.20285
G1 X100.949 Y93.201 E2.24314 F600.000
G1 X102.147 Y93.655 E2.28279
G1 X102.575 Y93.883 E2.29780
G1 X103.520 Y94.537 E2.33335
G1 X104.315 Y95.295 E2.36732
G1 X104.804 Y95.912 E2.39169
G1 X105.261 Y96.642 E2.41835
G1 X105.562 Y97.277 E2.44008
G1 X105.881 Y98.225 E2.47103
G1 X106.066 Y99.231 E2.50268
G1 X106.102 Y100.298 E2.53572
G1 X105.978 Y101.346 E2.56836
G1 X105.722 Y102.301 E2.59895
G1 X105.404 Y103.075 E2.62484
G1 X105.005 Y103.788 E2.65011
G1 X104.520 Y104.460 E2.67576
G1 X103.835 Y105.188 E2.70668
G1 X103.338 Y105.607 E2.72680
G1 X102.289 Y106.270 E2.76520
G1 X101.158 Y106.736 E2.80304
G1 X99.798 Y107.020 E2.84603
G1 X98.380 Y107.028 E2.88992
G1 X96.936 Y106.736 E2.93549
G1 X95.806 Y106.270 E2.97333
G1 X94.757 Y105.607 E3.01173
G1 X94.259 Y105.188 E3.03185
G1 X93.575 Y104.460 E3.06277
G1 X93.090 Y103.788 E3.08841
G1 X92.691 Y103.075 E3.11369
G1 X92.373 Y102.301 E3.13957
G1 X92.117 Y101.346 E3.17017
G1 X91.993 Y100.298 E3.20281
G1 X92.029 Y99.231 E3.23585
G1 X92.214 Y98.225 E3.26749
G1 X92.533 Y97.277 E3.29845
G1 X92.834 Y96.641 E3.32022
G1 X93.291 Y95.912 E3.34684
G1 X93.733 Y95.352 E3.36891
G1 Z0.650 F7800.000
G1 E1.36891 F2400.00000
G92 E0
G1 X99.393 Y100.126 F7800.000
G1 E2.00000 F2400.00000
G1 X99.321 Y100.244 E2.00255 F600.000
G1 X99.190 Y100.334 E2.00548
G1 X99.047 Y100.363 E2.00818
G1 X98.904 Y100.334 E2.01087
G1 X98.774 Y100.244 E2.01380
G1 X98.702 Y100.126 E2.01635
G1 X98.682 Y99.996 E2.01880
G1 X98.705 Y99.852 E2.02150
G1 X98.776 Y99.753 E2.02375
G1 X98.912 Y99.659 E2.02680
G1 X99.022 Y99.628 E2.02892
G1 X99.190 Y99.664 E2.03207
G1 X99.318 Y99.753 E2.03497
G1 X99.389 Y99.852 E2.03722
G1 X99.413 Y99.996 E2.03992
G1 X99.404 Y100.052 E2.04098
G1 X99.255 Y100.141 F7800.000
G1 Z0.950 F7800.000
G1 X99.367 Y100.164 F7800.000
G1 X99.284 Y100.270 E2.04346 F600.000
G1 X99.142 Y100.344 E2.04642
G1 X99.000 Y100.353 E2.04907
G1 X98.858 Y100.303 E2.05184
G1 X98.775 Y100.231 E2.05388
G1 X98.704 Y100.101 E2.05661
G1 X98.691 Y99.969 E2.05906
G1 X98.734 Y99.813 E2.06204
G1 X98.814 Y99.726 E2.06424
G1 X98.954 Y99.655 E2.06714
G1 X99.073 Y99.644 E2.06935
G1 X99.195 Y99.672 E2.07168
G1 X99.310 Y99.751 E2.07424
G1 X99.389 Y99.888 E2.07717
G1 X99.403 Y100.039 E2.07998
G1 X99.388 Y100.092 E2.08099
G1 X99.233 Y100.162 F7800.000
M106 S255
G1 Z1.250 F7800.000
G1 X99.200 Y100.100 F7800.000
G1 X99.047 Y100.206 E2.08443 F600.000
G1 X98.895 Y100.100 E2.08786
G1 X98.848 Y99.859 E2.09240
G1 X99.092 Y99.822 E2.09696
G1 X99.197 Y99.894 E2.09931
G1 X99.214 Y100.026 E2.10177 F600.000
G1 X99.015 Y100.079 F7800.000
G1 E0.10177 F2400.00000
G92 E0
M107
M104 S0 ; turn off temperature
G28 X0  ; home X axis
M84     ; disable motors

; filament used = 1.5mm (0.0cm3)

; avoid_crossing_perimeters = 0
; bed_shape = 0x0,200x0,200x200,0x200
; bed_temperature = 0
; before_layer_gcode = 
; bridge_acceleration = 0
; bridge_fan_speed = 100
; brim_width = 0
; complete_objects = 0
; cooling = 1
; default_acceleration = 0
; disable_fan_first_layers = 3
; duplicate_distance = 6
; end_gcode = M104 S0 ; turn off temperature\nG28 X0  ; home X axis\nM84     ; disable motors\n
; extruder_clearance_height = 20
; extruder_clearance_radius = 20
; extruder_offset = 0x0
; extrusion_axis = E
; extrusion_multiplier = 1
; fan_always_on = 0
; fan_below_layer_time = 60
; filament_colour = #FFFFFF
; filament_diameter = 3
; first_layer_acceleration = 0
; first_layer_bed_temperature = 0
; first_layer_extrusion_width = 200%
; first_layer_speed = 30
; first_layer_temperature = 200
; gcode_arcs = 0
; gcode_comments = 0
; gcode_flavor = reprap
; infill_acceleration = 0
; infill_first = 0
; layer_gcode = 
; max_fan_speed = 100
; max_print_speed = 80
; max_volumetric_speed = 0
; min_fan_speed = 35
; min_print_speed = 10
; min_skirt_length = 0
; notes = 
; nozzle_diameter = 0.5
; only_retract_when_crossing_perimeters = 1
; ooze_prevention = 0
; output_filename_format = [input_filename_base].gcode
; perimeter_acceleration = 0
; post_process = 
; pressure_advance = 0
; resolution = 0
; retract_before_travel = 2
; retract_layer_change = 0
; retract_length = 2
; retract_length_toolchange = 10
; retract_lift = 0
; retract_restart_extra = 0
; retract_restart_extra_toolchange = 0
; retract_speed = 40
; skirt_distance = 6
; skirt_height = 1
; skirts = 1
; slowdown_below_layer_time = 5
; spiral_vase = 0
; standby_temperature_delta = -5
; start_gcode = G28 ; home all axes\nG1 Z5 F5000 ; lift nozzle\n
; temperature = 200
; threads = 2
; toolchange_gcode = 
; travel_speed = 130
; use_firmware_retraction = 0
; use_relative_e_distances = 0
; use_volumetric_e = 0
; vibration_limit = 0
; wipe = 0
; z_offset = 0
; dont_support_bridges = 1
; extrusion_width = 0
; first_layer_height = 0.35
; infill_only_where_needed = 0
; interface_shells = 0
; layer_height = 0.3
; raft_layers = 0
; seam_position = aligned
; support_material = 0
; support_material_angle = 0
; support_material_contact_distance = 0.2
; support_material_enforce_layers = 0
; support_material_extruder = 1
; support_material_extrusion_width = 0
; support_material_interface_extruder = 1
; support_material_interface_layers = 3
; support_material_interface_spacing = 0
; support_material_interface_speed = 100%
; support_material_pattern = pillars
; support_material_spacing = 2.5
; support_material_speed = 60
; support_material_threshold = 0
; xy_size_compensation = 0
; bottom_solid_layers = 3
; bridge_flow_ratio = 1
; bridge_speed = 60
; external_fill_pattern = rectilinear
; external_perimeter_extrusion_width = 0
; external_perimeter_speed = 50%
; external_perimeters_first = 0
; extra_perimeters = 1
; fill_angle = 45
; fill_density = 20%
; fill_pattern = honeycomb
; gap_fill_speed = 20
; infill_every_layers = 1
; infill_extruder = 1
; infill_extrusion_width = 0
; infill_overlap = 15%
; infill_speed = 80
; overhangs = 1
; perimeter_extruder = 1
; perimeter_extrusion_width = 0
; perimeter_speed = 60
; perimeters = 3
; small_perimeter_speed = 15
; solid_infill_below_area = 70
; solid_infill_every_layers = 0
; solid_infill_extruder = 1
; solid_infill_extrusion_width = 0
; solid_infill_speed = 20
; thin_walls = 1
; top_infill_extrusion_width = 0
; top_solid_infill_speed = 15
; top_solid_layers = 3
